src/svg/uf0c9-bars,navicon,reorder.svg

<!-- Generated by IcoMoon.io -->
<svg version="1.1" xmlns="http://www.w3.org/2000/svg" width="27" height="32" viewBox="0 0 27 32">
<path d="M27.429 24v2.286c0 0.625-0.518 1.143-1.143 1.143h-25.143c-0.625 0-1.143-0.518-1.143-1.143v-2.286c0-0.625 0.518-1.143 1.143-1.143h25.143c0.625 0 1.143 0.518 1.143 1.143zM27.429 14.857v2.286c0 0.625-0.518 1.143-1.143 1.143h-25.143c-0.625 0-1.143-0.518-1.143-1.143v-2.286c0-0.625 0.518-1.143 1.143-1.143h25.143c0.625 0 1.143 0.518 1.143 1.143zM27.429 5.714v2.286c0 0.625-0.518 1.143-1.143 1.143h-25.143c-0.625 0-1.143-0.518-1.143-1.143v-2.286c0-0.625 0.518-1.143 1.143-1.143h25.143c0.625 0 1.143 0.518 1.143 1.143z"></path>
</svg>

<svg xmlns="http://www.w3.org/2000/svg" width="27" height="32"><path d="M27.429 24v2.286c0 .625-.518 1.143-1.143 1.143H1.143A1.151 1.151 0 0 1 0 26.286V24c0-.625.518-1.143 1.143-1.143h25.143c.625 0 1.143.518 1.143 1.143zm0-9.143v2.286c0 .625-.518 1.143-1.143 1.143H1.143A1.151 1.151 0 0 1 0 17.143v-2.286c0-.625.518-1.143 1.143-1.143h25.143c.625 0 1.143.518 1.143 1.143zm0-9.143V8c0 .625-.518 1.143-1.143 1.143H1.143A1.151 1.151 0 0 1 0 8V5.714c0-.625.518-1.143 1.143-1.143h25.143c.625 0 1.143.518 1.143 1.143z"/></svg>
